X: 1
T: The Rambling Pitchfork (D minor 4-part version)
D: Kevin Burke and Ged Foley. In Tandem
Z: E.Bolton
N: see www.thesession.org/tunes/display.php/2329
M: 6/8
L: 1/8
R: Jig
K: Dmin
|: FFF G^FG | AGA dA^F | G^FG A2 g | fed cAG |
^FDD ADD | CDD A,DD | G^FG ABG | AFD D3 :|
|: d2 g fed | ecA ABc | d2e fed | f/2g/2af gec |
d2e fed |ecA FGA |G^FG ABG |AFD D3: |
|: FFF AFF | cFF A2^F | G^FG A2 g | fed cAG |
^FDD ADD | CDD A,DD | G^FG ABG | AFD D3 :|
|: f2 f ecA | B2 B AFD | G^FG A2 g | fed cAG |
^FDD ADD | CDD A,DD | G^FG ABG | AFD D3:|
